;FLAVOR:Marlin
;TIME:1666
;Filament used: 1.5845m
;Layer height: 0.256
;MINX:81.659
;MINY:68.591
;MINZ:0.3
;MAXX:138.329
;MAXY:151.414
;MAXZ:3.348
;Generated with Cura_SteamEngine 4.6.1
M140 S55
M105
M190 S55
M104 S200
M105
M109 S200
M82 ;absolute extrusion mode
G28 ;Home

G0 Y20 X20 Z0.36 F2400 ; Move out of print volume
G1 X60 E9 F500 ; start purge line
G1 X150 E20 F500 ; finish purge line
G92 E0
G92 E0
G1 F1500 E-6.5
;LAYER_COUNT:9
;LAYER:0
M107
M204 S5000
G1 F600 Z1.3
G0 F1200 X94.006 Y69.12 Z1.3
M204 S3000
;TYPE:SKIRT
G1 F600 Z0.3
G1 F1500 E0
G1 F1200 X94.557 Y69.286 E0.02871
G1 X131.51 Y81.158 E1.96511
G1 X132.17 Y81.38 E1.99985
G1 X132.635 Y81.579 E2.02509
G1 X133.063 Y81.848 E2.05031
G1 X133.443 Y82.182 E2.07555
G1 X133.765 Y82.571 E2.10074
G1 X134.023 Y83.006 E2.12597
G1 X134.209 Y83.476 E2.15119
G1 X134.318 Y83.969 E2.17638
G1 X134.348 Y84.474 E2.20162
G1 X134.287 Y85.039 E2.22997
G1 X133.702 Y88.173 E2.38903
G1 X133.285 Y90.854 E2.52439
G1 X132.938 Y93.588 E2.66188
G1 X132.668 Y96.331 E2.7994
G1 X132.48 Y99.039 E2.93482
G1 X132.368 Y101.756 E3.07049
G1 X132.332 Y104.509 E3.20785
G1 X132.374 Y107.263 E3.34526
G1 X132.492 Y109.977 E3.48079
G1 X132.689 Y112.723 E3.61814
G1 X132.961 Y115.428 E3.75378
G1 X133.314 Y118.158 E3.89111
G1 X133.745 Y120.888 E4.029
G1 X134.235 Y123.507 E4.16193
G1 X134.826 Y126.24 E4.30143
G1 X135.477 Y128.878 E4.43699
G1 X136.205 Y131.512 E4.57333
G1 X137 Y134.105 E4.70863
G1 X137.764 Y136.38 E4.82836
G1 X137.886 Y136.871 E4.8536
G1 X137.93 Y137.374 E4.8788
G1 X137.894 Y137.879 E4.90405
G1 X137.779 Y138.371 E4.92926
G1 X137.588 Y138.839 E4.95448
G1 X137.325 Y139.271 E4.97971
G1 X136.998 Y139.657 E5.00495
G1 X136.614 Y139.986 E5.03018
G1 X136.183 Y140.25 E5.05539
G1 X135.687 Y140.452 E5.08211
G1 X135.255 Y140.585 E5.10466
G1 X97.389 Y150.731 E7.06045
G1 X96.65 Y150.919 E7.09849
G1 X96.151 Y151.005 E7.12375
G1 X95.646 Y151.011 E7.14895
G1 X95.146 Y150.937 E7.17417
G1 X94.663 Y150.785 E7.19943
G1 X94.211 Y150.56 E7.22462
G1 X93.8 Y150.266 E7.24983
G1 X93.44 Y149.91 E7.27509
G1 X93.141 Y149.503 E7.30028
G1 X92.916 Y149.07 E7.32463
G1 X87.272 Y134.794 E8.0905
G1 X86.923 Y133.883 E8.13917
G1 X86.451 Y132.618 E8.20653
G1 X85.794 Y130.735 E8.30603
G1 X85.516 Y129.887 E8.35055
G1 X84.923 Y127.942 E8.452
G1 X84.696 Y127.142 E8.49349
G1 X84.178 Y125.169 E8.59526
G1 X83.975 Y124.329 E8.63837
G1 X83.533 Y122.317 E8.74114
G1 X83.374 Y121.518 E8.78179
G1 X83.011 Y119.484 E8.88487
G1 X82.881 Y118.661 E8.92644
G1 X82.601 Y116.622 E9.02912
G1 X82.506 Y115.813 E9.06976
G1 X82.305 Y113.737 E9.17381
G1 X82.243 Y112.949 E9.21325
G1 X82.123 Y110.832 E9.31903
G1 X82.093 Y110.024 E9.35937
G1 X82.059 Y107.974 E9.46166
G1 X82.061 Y107.164 E9.50207
G1 X82.11 Y105.076 E9.60627
G1 X82.145 Y104.245 E9.64777
G1 X82.275 Y102.187 E9.75065
G1 X82.341 Y101.393 E9.7904
G1 X82.558 Y99.298 E9.89548
G1 X82.656 Y98.511 E9.93504
G1 X82.956 Y96.424 E10.04023
G1 X83.083 Y95.65 E10.07936
G1 X83.46 Y93.611 E10.18282
G1 X83.634 Y92.762 E10.22605
G1 X84.075 Y90.813 E10.32575
G1 X84.283 Y89.978 E10.36868
G1 X84.819 Y87.983 E10.47174
G1 X85.193 Y86.693 E10.53875
G1 X85.485 Y85.727 E10.58909
G1 X89.811 Y71.892 E11.31228
G1 X90.043 Y71.184 E11.34945
G1 X90.238 Y70.718 E11.37465
G1 X90.505 Y70.288 E11.39991
G1 X90.836 Y69.906 E11.42512
G1 X91.222 Y69.581 E11.4503
G1 X91.656 Y69.32 E11.47556
G1 X92.125 Y69.131 E11.50079
G1 X92.617 Y69.018 E11.52598
G1 X93.122 Y68.984 E11.55123
G1 X93.625 Y69.03 E11.57643
G1 X94.006 Y69.12 E11.59596
M204 S5000
G0 X94.121 Y68.737
M204 S3000
G1 X94.672 Y68.903 E11.62467
G1 X131.632 Y80.778 E13.56145
G1 X132.297 Y81.001 E13.59644
G1 X132.791 Y81.21 E13.6232
G1 X133.249 Y81.489 E13.64996
G1 X133.66 Y81.833 E13.6767
G1 X134.016 Y82.235 E13.70349
G1 X134.307 Y82.685 E13.73022
G1 X134.529 Y83.173 E13.75697
G1 X134.676 Y83.689 E13.78374
G1 X134.744 Y84.221 E13.81049
G1 X134.732 Y84.757 E13.83724
G1 X134.603 Y85.498 E13.87477
G1 X134.097 Y88.235 E14.01363
G1 X133.678 Y90.928 E14.1496
G1 X133.338 Y93.606 E14.28428
G1 X133.067 Y96.361 E14.42239
G1 X132.88 Y99.047 E14.55672
G1 X132.767 Y101.778 E14.69309
G1 X132.732 Y104.508 E14.8293
G1 X132.773 Y107.238 E14.96551
G1 X132.892 Y109.966 E15.10174
G1 X133.088 Y112.688 E15.2379
G1 X133.361 Y115.409 E15.37433
G1 X133.706 Y118.076 E15.50849
G1 X134.135 Y120.788 E15.64548
G1 X134.637 Y123.474 E15.7818
G1 X135.218 Y126.157 E15.91876
G1 X135.856 Y128.747 E16.05184
G1 X136.59 Y131.403 E16.18932
G1 X137.395 Y134.026 E16.3262
G1 X138.143 Y136.253 E16.44341
G1 X138.275 Y136.773 E16.47017
G1 X138.329 Y137.306 E16.4969
G1 X138.303 Y137.842 E16.52367
G1 X138.197 Y138.368 E16.55044
G1 X138.015 Y138.872 E16.57718
G1 X137.76 Y139.344 E16.60394
G1 X137.437 Y139.772 E16.63069
G1 X137.055 Y140.148 E16.65743
G1 X136.62 Y140.463 E16.68423
G1 X136.144 Y140.71 E16.71098
G1 X135.504 Y140.929 E16.74473
G1 X97.493 Y151.117 E18.70804
G1 X96.748 Y151.307 E18.7464
G1 X96.22 Y151.4 E18.77315
G1 X95.684 Y151.414 E18.7999
G1 X95.152 Y151.347 E18.82665
G1 X94.635 Y151.203 E18.85343
G1 X94.146 Y150.983 E18.88018
G1 X93.695 Y150.693 E18.90693
G1 X93.292 Y150.34 E18.93366
G1 X92.946 Y149.93 E18.96042
G1 X92.664 Y149.474 E18.98717
G1 X92.4 Y148.879 E19.01965
G1 X86.9 Y134.941 E19.7672
G1 X86.549 Y134.026 E19.81609
G1 X86.077 Y132.758 E19.88359
G1 X85.417 Y130.867 E19.98351
G1 X85.136 Y130.011 E20.02846
G1 X84.54 Y128.059 E20.13029
G1 X84.311 Y127.251 E20.17219
G1 X83.791 Y125.27 E20.27437
G1 X83.586 Y124.422 E20.31789
G1 X83.143 Y122.402 E20.42106
G1 X82.981 Y121.596 E20.46208
G1 X82.618 Y119.554 E20.56555
G1 X82.486 Y118.724 E20.60748
G1 X82.204 Y116.676 E20.71062
G1 X82.108 Y115.86 E20.75161
G1 X81.907 Y113.776 E20.85607
G1 X81.845 Y112.979 E20.89595
G1 X81.724 Y110.854 E21.00214
G1 X81.693 Y110.039 E21.04283
G1 X81.659 Y107.98 E21.14557
G1 X81.661 Y107.163 E21.18633
G1 X81.71 Y105.067 E21.29092
G1 X81.745 Y104.228 E21.33282
G1 X81.876 Y102.162 E21.4361
G1 X81.942 Y101.36 E21.47625
G1 X82.16 Y99.257 E21.58173
G1 X82.259 Y98.462 E21.6217
G1 X82.56 Y96.367 E21.72729
G1 X82.688 Y95.585 E21.76682
G1 X83.066 Y93.538 E21.87067
G1 X83.242 Y92.681 E21.91432
G1 X83.685 Y90.725 E22.01438
G1 X83.895 Y89.881 E22.05777
G1 X84.433 Y87.879 E22.16119
G1 X84.809 Y86.582 E22.22857
G1 X85.102 Y85.611 E22.27917
G1 X89.429 Y71.773 E23.00251
G1 X89.663 Y71.06 E23.03995
G1 X89.868 Y70.564 E23.06673
G1 X90.144 Y70.104 E23.09349
G1 X90.486 Y69.691 E23.12024
G1 X90.885 Y69.333 E23.14699
G1 X91.333 Y69.038 E23.17375
G1 X91.82 Y68.813 E23.20051
G1 X92.335 Y68.663 E23.22727
G1 X92.866 Y68.591 E23.25401
G1 X93.402 Y68.598 E23.28075
G1 X94.121 Y68.737 E23.31729
M204 S5000
G1 F1500 E16.81729
G1 F600 Z1.3
;MESH:road_to_well.stl
G0 F1200 X93.66 Y72.988 Z1.3
M204 S3000
;TYPE:WALL-INNER
G1 F600 Z0.3
G1 F1500 E23.31729
G1 F1200 X130.41 Y84.796 E25.24307
G1 X126.001 Y98.894 E25.98001
G1 X125.51 Y100.656 E26.07127
G1 X125.125 Y102.454 E26.16301
G1 X124.853 Y104.274 E26.25481
G1 X124.692 Y106.108 E26.34666
G1 X124.647 Y107.946 E26.43839
G1 X124.713 Y109.784 E26.53015
G1 X124.894 Y111.616 E26.62199
G1 X125.187 Y113.431 E26.71371
G1 X125.59 Y115.226 E26.8055
G1 X126.104 Y116.993 E26.89731
G1 X126.724 Y118.715 E26.98862
G1 X133.858 Y136.796 E27.95836
G1 X133.94 Y137.004 E27.96951
G1 X133.724 Y137.061 E27.97648
G1 X96.216 Y147.112 E29.91379
G1 X90.635 Y132.964 E30.67257
G1 X89.676 Y130.385 E30.80984
G1 X88.83 Y127.796 E30.94573
G1 X88.079 Y125.145 E31.08319
G1 X87.439 Y122.481 E31.21988
G1 X86.907 Y119.801 E31.3562
G1 X86.48 Y117.087 E31.49326
G1 X86.165 Y114.381 E31.62918
G1 X85.955 Y111.641 E31.76628
G1 X85.855 Y108.903 E31.90297
G1 X85.865 Y106.18 E32.03882
G1 X85.984 Y103.435 E32.1759
G1 X86.213 Y100.696 E32.31302
G1 X86.548 Y97.993 E32.44891
G1 X86.993 Y95.29 E32.58558
G1 X87.549 Y92.591 E32.72306
G1 X88.204 Y89.948 E32.85891
G1 X88.973 Y87.305 E32.99623
G1 X93.41 Y73.118 E33.73783
G1 X93.469 Y72.927 E33.74781
G1 X93.659 Y72.987 E33.75421
G1 X93.66 Y72.988 E33.75428
M204 S5000
G0 X93.398 Y72.484
M204 S3000
;TYPE:WALL-OUTER
G1 X130.831 Y84.511 E35.71585
G1 X130.91 Y84.536 E35.71998
G1 X126.385 Y99.007 E36.47642
G1 X125.899 Y100.752 E36.56679
G1 X125.519 Y102.526 E36.6573
G1 X125.25 Y104.321 E36.74786
G1 X125.092 Y106.13 E36.83845
G1 X125.047 Y107.944 E36.92898
G1 X125.112 Y109.757 E37.01949
G1 X125.291 Y111.564 E37.11008
G1 X125.58 Y113.355 E37.20059
G1 X125.978 Y115.126 E37.29115
G1 X126.485 Y116.869 E37.38171
G1 X127.098 Y118.574 E37.47211
G1 X134.395 Y137.066 E38.46391
G1 X134.477 Y137.274 E38.47506
G1 X134.261 Y137.331 E38.48203
G1 X95.975 Y147.59 E40.45951
G1 X90.263 Y133.111 E41.23605
G1 X89.301 Y130.524 E41.37375
G1 X88.445 Y127.905 E41.51122
G1 X87.694 Y125.254 E41.64868
G1 X87.05 Y122.574 E41.78619
G1 X86.515 Y119.879 E41.92327
G1 X86.085 Y117.149 E42.06115
G1 X85.766 Y114.412 E42.19862
G1 X85.556 Y111.672 E42.33572
G1 X85.455 Y108.918 E42.47321
G1 X85.465 Y106.163 E42.61066
G1 X85.585 Y103.402 E42.74854
G1 X85.814 Y100.663 E42.88567
G1 X86.153 Y97.928 E43.02316
G1 X86.601 Y95.209 E43.16064
G1 X87.157 Y92.51 E43.29812
G1 X87.82 Y89.836 E43.43557
G1 X88.591 Y87.186 E43.57326
G1 X93.148 Y72.614 E44.33498
G1 X93.207 Y72.423 E44.34495
G1 X93.397 Y72.483 E44.35136
G1 X93.398 Y72.484 E44.35143
M204 S5000
G0 X93.588 Y72.545
G0 X93.724 Y73.418
M204 S3000
;TYPE:SKIN
G1 X129.923 Y85.048 E46.24832
G1 X125.627 Y98.783 E46.9663
G1 X125.131 Y100.563 E47.05849
G1 X124.741 Y102.384 E47.1514
G1 X124.465 Y104.228 E47.24442
G1 X124.302 Y106.086 E47.33747
G1 X124.257 Y107.948 E47.4304
G1 X124.323 Y109.81 E47.52335
G1 X124.508 Y111.667 E47.61645
G1 X124.804 Y113.505 E47.70933
G1 X125.212 Y115.323 E47.80229
G1 X125.733 Y117.114 E47.89535
G1 X126.359 Y118.853 E47.98756
G1 X133.417 Y136.74 E48.9469
G1 X96.451 Y146.645 E50.8562
G1 X90.998 Y132.821 E51.5976
G1 X90.044 Y130.256 E51.73413
G1 X89.201 Y127.675 E51.8696
G1 X88.454 Y125.038 E52.00633
G1 X87.818 Y122.39 E52.1422
G1 X87.292 Y119.74 E52.27699
G1 X86.866 Y117.026 E52.41405
G1 X86.549 Y114.306 E52.55067
G1 X86.345 Y111.627 E52.68471
G1 X86.245 Y108.905 E52.8206
G1 X86.255 Y106.197 E52.95571
G1 X86.374 Y103.452 E53.09278
G1 X86.599 Y100.744 E53.22835
G1 X86.934 Y98.048 E53.36389
G1 X87.375 Y95.368 E53.49939
G1 X87.927 Y92.685 E53.63605
G1 X88.578 Y90.057 E53.77113
G1 X89.345 Y87.422 E53.90804
G1 X93.724 Y73.418 E54.64007
M204 S5000
G0 X129.599 Y85.476
M204 S3000
G1 X129.093 Y84.97 E54.67577
M204 S5000
G0 X128.259 Y84.702
M204 S3000
G1 X129.465 Y85.907 E54.76082
M204 S5000
G0 X129.33 Y86.338
M204 S3000
G1 X127.427 Y84.434 E54.89512
G1 X127.357 Y84.364
M204 S5000
G0 X126.593 Y84.166
M204 S3000
G1 X129.195 Y86.769 E55.07875
M204 S5000
G0 X129.061 Y87.2
M204 S3000
G1 X125.759 Y83.898 E55.31172
G1 X125.689 Y83.828
M204 S5000
G0 X124.926 Y83.631
M204 S3000
G1 X128.926 Y87.631 E55.59394
M204 S5000
G0 X128.791 Y88.062
M204 S3000
G1 X124.092 Y83.363 E55.92548
G1 X124.022 Y83.293
M204 S5000
G0 X123.26 Y83.096
M204 S3000
G1 X128.656 Y88.492 E56.3062
M204 S5000
G0 X128.521 Y88.923
M204 S3000
G1 X122.426 Y82.828 E56.73623
G1 X122.356 Y82.758
M204 S5000
G0 X121.592 Y82.56
M204 S3000
G1 X128.387 Y89.354 E57.21562
M204 S5000
G0 X128.252 Y89.785
M204 S3000
G1 X120.759 Y82.293 E57.74426
G1 X120.689 Y82.223
M204 S5000
G0 X119.926 Y82.025
M204 S3000
G1 X128.117 Y90.216 E58.32218
M204 S5000
G0 X127.982 Y90.647
M204 S3000
G1 X119.092 Y81.757 E58.94941
G1 X119.022 Y81.687
M204 S5000
G0 X118.259 Y81.489
M204 S3000
G1 X127.847 Y91.078 E59.62593
M204 S5000
G0 X127.713 Y91.509
M204 S3000
G1 X117.425 Y81.221 E60.35181
G1 X117.355 Y81.151
M204 S5000
G0 X116.592 Y80.953
M204 S3000
G1 X127.578 Y91.94 E61.12697
M204 S5000
G0 X127.443 Y92.37
M204 S3000
G1 X115.759 Y80.686 E61.95134
G1 X115.689 Y80.616
M204 S5000
G0 X114.925 Y80.418
M204 S3000
G1 X127.308 Y92.802 E62.82506
M204 S5000
G0 X127.173 Y93.232
M204 S3000
G1 X114.091 Y80.15 E63.74806
G1 X114.021 Y80.08
M204 S5000
G0 X113.258 Y79.883
M204 S3000
G1 X127.039 Y93.664 E64.72039
M204 S5000
G0 X126.904 Y94.094
M204 S3000
G1 X112.425 Y79.615 E65.74196
G1 X112.355 Y79.545
M204 S5000
G0 X111.592 Y79.347
M204 S3000
G1 X126.769 Y94.525 E66.81281
M204 S5000
G0 X126.635 Y94.956
M204 S3000
G1 X110.758 Y79.079 E67.93302
G1 X110.688 Y79.009
M204 S5000
G0 X109.924 Y78.812
M204 S3000
G1 X126.499 Y95.387 E69.10248
M204 S5000
G0 X126.365 Y95.818
M204 S3000
G1 X109.091 Y78.544 E70.32125
G1 X109.021 Y78.474
M204 S5000
G0 X108.258 Y78.276
M204 S3000
G1 X126.23 Y96.249 E71.58931
M204 S5000
G0 X126.095 Y96.679
M204 S3000
G1 X107.424 Y78.008 E72.90665
G1 X107.354 Y77.938
M204 S5000
G0 X106.591 Y77.741
M204 S3000
G1 X125.961 Y97.111 E74.27331
M204 S5000
G0 X125.826 Y97.541
M204 S3000
G1 X105.757 Y77.473 E75.68925
G1 X105.687 Y77.403
M204 S5000
G0 X104.924 Y77.205
M204 S3000
G1 X125.691 Y97.972 E77.15447
M204 S5000
G0 X125.556 Y98.403
M204 S3000
G1 X104.091 Y76.938 E78.66894
G1 X104.021 Y76.868
M204 S5000
G0 X103.257 Y76.67
M204 S3000
G1 X125.424 Y98.837 E80.23295
M204 S5000
G0 X125.301 Y99.279
M204 S3000
G1 X102.424 Y76.402 E81.84704
G1 X102.354 Y76.332
M204 S5000
G0 X101.59 Y76.134
M204 S3000
G1 X125.178 Y99.722 E83.5113
M204 S5000
G0 X125.055 Y100.165
M204 S3000
G1 X100.757 Y75.866 E85.22569
G1 X100.687 Y75.796
M204 S5000
G0 X99.924 Y75.599
M204 S3000
G1 X124.936 Y100.612 E86.99046
M204 S5000
G0 X124.836 Y101.078
M204 S3000
G1 X99.09 Y75.331 E88.80701
G1 X99.02 Y75.261
M204 S5000
G0 X98.256 Y75.063
M204 S3000
G1 X124.737 Y101.544 E90.67539
M204 S5000
G0 X124.636 Y102.009
M204 S3000
G1 X97.423 Y74.796 E92.59542
G1 X97.353 Y74.726
M204 S5000
G0 X96.59 Y74.528
M204 S3000
G1 X124.544 Y102.482 E94.56772
M204 S5000
G0 X124.469 Y102.973
M204 S3000
G1 X95.756 Y74.26 E96.59358
G1 X95.686 Y74.19
M204 S5000
G0 X94.923 Y73.993
M204 S3000
G1 X124.396 Y103.465 E98.67302
M204 S5000
G0 X124.322 Y103.958
M204 S3000
G1 X94.089 Y73.725 E100.80612
M204 S5000
G0 X93.746 Y73.947
M204 S3000
G1 X124.262 Y104.463 E102.95919
M204 S5000
G0 X124.217 Y104.984
M204 S3000
G1 X93.611 Y74.378 E105.11861
M204 S5000
G0 X93.476 Y74.809
M204 S3000
G1 X124.171 Y105.503 E107.28427
M204 S5000
G0 X124.126 Y106.024
M204 S3000
G1 X93.342 Y75.24 E109.45625
M204 S5000
G0 X93.207 Y75.671
M204 S3000
G1 X124.109 Y106.573 E111.63655
M204 S5000
G0 X124.096 Y107.125
M204 S3000
G1 X93.072 Y76.102 E113.82543
M204 S5000
G0 X92.937 Y76.532
M204 S3000
G1 X124.083 Y107.678 E116.02295
M204 S5000
G0 X124.087 Y108.248
M204 S3000
G1 X92.803 Y76.964 E118.2302
M204 S5000
G0 X92.668 Y77.394
M204 S3000
G1 X124.107 Y108.834 E120.44843
M204 S5000
G0 X124.129 Y109.421
M204 S3000
G1 X92.533 Y77.825 E122.6777
M204 S5000
G0 X92.399 Y78.256
M204 S3000
G1 X124.163 Y110.02 E124.91882
M204 S5000
G0 X124.225 Y110.648
M204 S3000
G1 X92.263 Y78.687 E127.17388
M204 S5000
G0 X92.129 Y79.118
M204 S3000
G1 X124.288 Y111.277 E129.44287
M204 S5000
G0 X124.366 Y111.921
M204 S3000
G1 X91.994 Y79.549 E131.72689
M204 S5000
G0 X91.86 Y79.98
M204 S3000
G1 X124.475 Y112.596 E134.02809
M204 S5000
G0 X124.584 Y113.27
M204 S3000
G1 X91.725 Y80.411 E136.34647
M204 S5000
G0 X91.59 Y80.842
M204 S3000
G1 X124.726 Y113.978 E138.68439
M204 S5000
G0 X124.889 Y114.707
M204 S3000
G1 X91.455 Y81.273 E141.04334
M204 S5000
G0 X91.32 Y81.704
M204 S3000
G1 X125.059 Y115.442 E143.42377
G1 X125.129 Y115.512
M204 S5000
G0 X125.291 Y116.24
M204 S3000
G1 X91.186 Y82.135 E145.83007
M204 S5000
G0 X91.051 Y82.566
M204 S3000
G1 X125.522 Y117.037 E148.26218
G1 X125.592 Y117.107
M204 S5000
G0 X125.826 Y117.907
M204 S3000
G1 X90.916 Y82.997 E150.72527
M204 S5000
G0 X90.781 Y83.427
M204 S3000
G1 X126.145 Y118.791 E153.22039
G1 X126.215 Y118.861
M204 S5000
G0 X126.507 Y119.718
M204 S3000
G1 X90.646 Y83.858 E155.75054
M204 S5000
G0 X90.512 Y84.289
M204 S3000
G1 X126.875 Y120.652 E158.31615
G1 X126.945 Y120.722
M204 S5000
G0 X127.243 Y121.587
M204 S3000
G1 X90.377 Y84.72 E160.91728
M204 S5000
G0 X90.243 Y85.151
M204 S3000
G1 X127.612 Y122.521 E163.5539
G1 X127.682 Y122.591
M204 S5000
G0 X127.981 Y123.455
M204 S3000
G1 X90.108 Y85.582 E166.22604
M204 S5000
G0 X89.973 Y86.013
M204 S3000
G1 X128.35 Y124.39 E168.93375
G1 X128.42 Y124.46
M204 S5000
G0 X128.718 Y125.324
M204 S3000
